modules/zondicons/icons/film.svg

<?xml version="1.0" encoding="UTF-8" standalone="no"?>
<svg width="20px" height="20px" viewBox="0 0 20 20" version="1.1" xmlns="http://www.w3.org/2000/svg" xmlns:xlink="http://www.w3.org/1999/xlink">
    <!-- Generator: Sketch 3.7.2 (28276) - http://www.bohemiancoding.com/sketch -->
    <title>film</title>
    <desc>Created with Sketch.</desc>
    <defs></defs>
    <g id="Page-1" stroke="none" stroke-width="1" fill="none" fill-rule="evenodd">
        <g id="film" fill="#000000">
            <path d="M0,3.99406028 C0,2.8927712 0.898212381,2 1.99079514,2 L18.0092049,2 C19.1086907,2 20,2.89451376 20,3.99406028 L20,16.0059397 C20,17.1072288 19.1017876,18 18.0092049,18 L1.99079514,18 C0.891309342,18 0,17.1054862 0,16.0059397 L0,3.99406028 Z M6,4 L14,4 L14,16 L6,16 L6,4 Z M2,5 L4,5 L4,7 L2,7 L2,5 Z M2,9 L4,9 L4,11 L2,11 L2,9 Z M2,13 L4,13 L4,15 L2,15 L2,13 Z M16,5 L18,5 L18,7 L16,7 L16,5 Z M16,9 L18,9 L18,11 L16,11 L16,9 Z M16,13 L18,13 L18,15 L16,15 L16,13 Z M8,7 L13,10 L8,13 L8,7 Z" id="Combined-Shape"></path>
        </g>
    </g>
</svg>

<svg width="20" height="20" viewBox="0 0 20 20" xmlns="http://www.w3.org/2000/svg"><path d="M0 3.994C0 2.893.898 2 1.99 2h16.02C19.108 2 20 2.895 20 3.994v12.012A1.997 1.997 0 0 1 18.01 18H1.99C.892 18 0 17.105 0 16.006V3.994zM6 4h8v12H6V4zM2 5h2v2H2V5zm0 4h2v2H2V9zm0 4h2v2H2v-2zm14-8h2v2h-2V5zm0 4h2v2h-2V9zm0 4h2v2h-2v-2zM8 7l5 3-5 3V7z" fill="#000" fill-rule="evenodd"/></svg>
